src/lib/packages/icons/src/assets/filled/user-check-alt.svg

<svg width="24" height="24" viewBox="0 0 24 24" fill="none" xmlns="http://www.w3.org/2000/svg">
<path d="M21.53 8.86401L18.197 12.197C18.051 12.343 17.859 12.417 17.667 12.417C17.475 12.417 17.283 12.344 17.137 12.197L15.47 10.53C15.177 10.238 15.177 9.76199 15.47 9.46899C15.763 9.17599 16.238 9.17599 16.531 9.46899L17.668 10.605L20.4709 7.802C20.7639 7.509 21.239 7.509 21.532 7.802C21.825 8.095 21.823 8.57101 21.53 8.86401ZM10.009 10.5C12.215 10.5 14.009 8.706 14.009 6.5C14.009 4.294 12.215 2.5 10.009 2.5C7.80303 2.5 6.00903 4.294 6.00903 6.5C6.00903 8.706 7.80303 10.5 10.009 10.5ZM12 12.5H8C3.94 12.5 2.5 15.473 2.5 18.019V21C2.5 21.276 2.724 21.5 3 21.5H17C17.276 21.5 17.5 21.276 17.5 21V18.019C17.5 15.473 16.06 12.5 12 12.5Z" fill="currentColor"/>
</svg>

<svg xmlns="http://www.w3.org/2000/svg" width="24" height="24" fill="none"><path fill="currentColor" d="m21.53 8.864-3.333 3.333a.748.748 0 0 1-1.06 0L15.47 10.53a.75.75 0 1 1 1.061-1.061l1.137 1.136 2.803-2.803a.75.75 0 1 1 1.059 1.062ZM10.009 10.5c2.206 0 4-1.794 4-4s-1.794-4-4-4-4 1.794-4 4 1.794 4 4 4Zm1.991 2H8c-4.06 0-5.5 2.973-5.5 5.519V21a.5.5 0 0 0 .5.5h14a.5.5 0 0 0 .5-.5v-2.981c0-2.546-1.44-5.519-5.5-5.519Z"/></svg>
